svg/color/brb.svg

<?xml version="1.0" encoding="UTF-8" ?>
<!DOCTYPE svg PUBLIC "-//W3C//DTD SVG 1.1//EN" "http://www.w3.org/Graphics/SVG/1.1/DTD/svg11.dtd">
<svg width="250pt" height="250pt" viewBox="0 0 250 250" version="1.1" xmlns="http://www.w3.org/2000/svg">
<g id="#ffffffff">
<path fill="#ffffff" opacity="1.00" d=" M 0.00 0.00 L 250.00 0.00 L 250.00 250.00 L 0.00 250.00 L 0.00 0.00 M 84.63 74.67 C 82.99 75.97 79.74 76.23 79.43 78.57 C 80.85 79.65 82.41 80.52 83.92 81.47 C 85.24 82.17 86.55 82.90 87.95 83.45 C 93.18 80.50 98.84 77.98 103.26 73.83 C 104.23 73.73 105.14 73.44 105.99 72.96 C 111.96 69.71 117.62 65.91 123.62 62.72 C 125.73 61.53 127.79 63.53 129.66 64.35 C 135.07 67.11 139.99 71.01 145.80 72.88 C 150.35 76.65 155.84 79.08 160.91 82.08 C 163.15 83.60 165.35 81.52 167.27 80.48 C 168.42 79.86 169.59 79.27 170.69 78.57 C 170.84 77.33 169.76 76.75 168.85 76.21 C 154.15 68.08 139.74 59.42 124.93 51.49 C 111.56 59.33 98.07 66.97 84.63 74.67 M 125.19 67.43 C 121.75 68.66 118.62 70.70 115.87 73.10 C 111.18 74.65 107.25 77.85 102.92 80.17 C 99.63 82.15 96.30 84.07 92.90 85.86 C 94.96 89.31 99.16 90.33 102.38 92.36 C 109.49 96.68 116.64 100.96 123.86 105.11 C 125.34 106.28 126.99 105.02 128.34 104.29 C 134.94 100.14 141.87 96.54 148.39 92.25 C 151.59 90.60 154.71 88.80 157.69 86.76 C 155.19 84.22 152.05 82.48 148.86 80.95 C 144.66 78.56 140.70 75.70 136.30 73.67 C 132.72 71.40 129.25 68.72 125.19 67.43 M 164.49 85.81 C 164.21 100.26 164.62 114.72 164.56 129.17 C 161.57 131.04 158.56 132.88 155.63 134.84 C 153.93 135.40 151.92 136.12 151.25 137.94 C 149.23 138.51 147.29 139.32 145.50 140.40 C 139.53 143.99 133.51 147.51 127.45 150.94 C 127.35 154.33 127.40 157.73 127.50 161.12 C 143.02 152.57 158.31 143.59 173.63 134.67 C 173.66 116.82 173.64 98.96 173.56 81.11 C 170.54 82.69 167.51 84.23 164.49 85.81 M 77.38 134.72 C 81.59 137.01 85.52 139.86 89.96 141.69 C 95.46 145.51 101.34 148.77 107.29 151.82 C 112.43 155.21 117.77 158.34 123.38 160.87 C 123.46 159.00 123.51 157.13 123.54 155.26 C 123.54 153.82 123.53 152.39 123.51 150.96 C 114.60 146.16 106.17 140.42 97.05 136.06 C 93.79 133.44 90.08 131.46 86.40 129.51 C 86.23 114.94 86.54 100.37 86.40 85.80 C 84.83 85.17 83.26 84.55 81.67 83.98 L 81.67 83.16 C 80.28 82.59 78.91 82.00 77.53 81.40 C 77.12 99.17 77.43 116.95 77.38 134.72 M 90.24 97.00 C 90.41 107.52 90.24 118.05 90.39 128.57 C 98.36 132.89 105.91 137.96 114.06 141.93 C 116.47 144.82 120.36 145.93 123.49 147.87 C 123.87 134.91 123.84 121.90 123.45 108.94 C 116.53 105.46 110.20 100.90 103.15 97.69 C 99.51 94.74 95.16 92.81 91.14 90.44 L 91.24 89.43 C 89.93 91.74 90.26 94.45 90.24 97.00 M 145.99 98.87 C 139.61 101.77 133.79 105.77 127.57 108.98 C 127.39 115.48 127.18 122.00 127.67 128.48 C 127.09 134.87 127.44 141.34 127.54 147.76 C 130.92 146.18 134.25 144.45 137.18 142.12 C 144.90 137.54 152.87 133.35 160.38 128.46 L 160.38 129.24 C 160.96 116.18 160.67 103.08 160.63 90.00 C 155.73 92.90 150.48 95.35 145.99 98.87 Z" />
</g>
<g id="#0196bdff">
<path fill="#0196bd" opacity="1.00" d=" M 84.63 74.67 C 98.07 66.97 111.56 59.33 124.93 51.49 C 139.74 59.42 154.15 68.08 168.85 76.21 C 169.76 76.75 170.84 77.33 170.69 78.57 C 169.59 79.27 168.42 79.86 167.27 80.48 C 160.81 76.32 153.72 72.57 145.80 72.88 C 139.99 71.01 135.07 67.11 129.66 64.35 C 127.79 63.53 125.73 61.53 123.62 62.72 C 117.62 65.91 111.96 69.71 105.99 72.96 C 105.14 73.44 104.23 73.73 103.26 73.83 C 95.92 73.48 89.83 77.76 83.92 81.47 C 82.41 80.52 80.85 79.65 79.43 78.57 C 79.74 76.23 82.99 75.97 84.63 74.67 Z" />
</g>
<g id="#04abd9ff">
<path fill="#04abd9" opacity="1.00" d=" M 125.19 67.43 C 129.25 68.72 132.72 71.40 136.30 73.67 C 129.51 73.14 122.68 73.40 115.87 73.10 C 118.62 70.70 121.75 68.66 125.19 67.43 Z" />
</g>
<g id="#0195bbff">
<path fill="#0195bb" opacity="1.00" d=" M 102.92 80.17 C 107.25 77.85 111.18 74.65 115.87 73.10 C 122.68 73.40 129.51 73.14 136.30 73.67 C 140.70 75.70 144.66 78.56 148.86 80.95 C 146.19 83.70 143.45 86.39 140.72 89.09 C 143.30 89.54 145.89 89.97 148.48 90.39 C 148.46 90.86 148.42 91.79 148.39 92.25 C 141.87 96.54 134.94 100.14 128.34 104.29 C 126.99 105.02 125.34 106.28 123.86 105.11 C 116.64 100.96 109.49 96.68 102.38 92.36 C 102.40 91.42 102.42 90.48 102.44 89.54 C 104.61 89.28 106.79 89.05 108.94 88.62 C 108.21 85.16 104.68 83.15 102.92 80.17 M 110.48 84.56 C 110.47 84.85 110.47 85.42 110.47 85.71 C 114.95 89.25 119.79 92.62 125.01 94.97 C 130.84 92.77 136.43 89.47 141.12 85.32 C 135.70 83.23 130.77 79.70 125.12 78.36 C 120.12 80.08 115.37 82.52 110.48 84.56 Z" />
</g>
<g id="#06b2e4ff">
<path fill="#06b2e4" opacity="1.00" d=" M 145.80 72.88 C 153.72 72.57 160.81 76.32 167.27 80.48 C 165.35 81.52 163.15 83.60 160.91 82.08 C 155.84 79.08 150.35 76.65 145.80 72.88 Z" />
</g>
<g id="#05b2e4ff">
<path fill="#05b2e4" opacity="1.00" d=" M 83.92 81.47 C 89.83 77.76 95.92 73.48 103.26 73.83 C 98.84 77.98 93.18 80.50 87.95 83.45 C 86.55 82.90 85.24 82.17 83.92 81.47 Z" />
</g>
<g id="#00748fff">
<path fill="#00748f" opacity="1.00" d=" M 110.48 84.56 C 115.37 82.52 120.12 80.08 125.12 78.36 C 130.77 79.70 135.70 83.23 141.12 85.32 C 136.43 89.47 130.84 92.77 125.01 94.97 C 119.79 92.62 114.95 89.25 110.47 85.71 C 110.47 85.42 110.47 84.85 110.48 84.56 Z" />
<path fill="#00748f" opacity="1.00" d=" M 99.08 107.79 C 99.83 107.20 100.58 106.61 101.34 106.02 C 105.39 108.71 110.08 110.81 113.21 114.64 C 114.79 119.41 114.47 124.56 114.76 129.53 C 114.16 129.71 112.96 130.09 112.36 130.27 C 108.98 128.50 105.54 126.78 102.38 124.61 C 101.07 123.64 99.49 122.59 99.30 120.82 C 98.50 116.52 99.04 112.13 99.08 107.79 Z" />
<path fill="#00748f" opacity="1.00" d=" M 137.57 114.50 C 142.12 111.35 146.30 107.08 152.05 106.34 C 152.31 111.80 152.18 117.27 151.76 122.72 C 147.53 125.42 143.24 128.02 138.77 130.30 C 138.14 130.10 136.89 129.70 136.26 129.51 C 136.46 124.49 136.92 119.48 137.57 114.50 Z" />
</g>
<g id="#02a3ceff">
<path fill="#02a3ce" opacity="1.00" d=" M 92.90 85.86 C 96.30 84.07 99.63 82.15 102.92 80.17 C 104.68 83.15 108.21 85.16 108.94 88.62 C 106.79 89.05 104.61 89.28 102.44 89.54 C 102.42 90.48 102.40 91.42 102.38 92.36 C 99.16 90.33 94.96 89.31 92.90 85.86 Z" />
<path fill="#02a3ce" opacity="1.00" d=" M 148.86 80.95 C 152.05 82.48 155.19 84.22 157.69 86.76 C 154.71 88.80 151.59 90.60 148.39 92.25 C 148.42 91.79 148.46 90.86 148.48 90.39 C 145.89 89.97 143.30 89.54 140.72 89.09 C 143.45 86.39 146.19 83.70 148.86 80.95 Z" />
</g>
<g id="#0297beff">
<path fill="#0297be" opacity="1.00" d=" M 164.49 85.81 C 167.51 84.23 170.54 82.69 173.56 81.11 C 173.64 98.96 173.66 116.82 173.63 134.67 C 158.31 143.59 143.02 152.57 127.50 161.12 C 127.40 157.73 127.35 154.33 127.45 150.94 C 127.65 152.21 127.85 153.47 128.06 154.74 C 134.15 151.24 140.47 148.11 146.46 144.41 C 148.96 143.06 150.12 140.40 151.25 137.94 C 151.92 136.12 153.93 135.40 155.63 134.84 C 156.85 135.42 158.04 136.06 159.24 136.71 C 162.46 135.23 165.57 133.52 168.58 131.65 C 168.94 123.58 169.40 115.47 168.50 107.41 C 167.35 107.84 166.21 108.27 165.07 108.70 C 164.40 101.09 164.70 93.44 164.49 85.81 Z" />
</g>
<g id="#007793ff">
<path fill="#007793" opacity="1.00" d=" M 77.38 134.72 C 77.43 116.95 77.12 99.17 77.53 81.40 C 78.91 82.00 80.28 82.59 81.67 83.16 L 81.67 83.98 C 81.75 99.92 81.24 115.87 81.91 131.79 C 83.92 132.92 85.94 134.06 87.95 135.19 C 89.38 136.92 90.65 138.78 91.75 140.74 C 91.30 140.98 90.41 141.45 89.96 141.69 C 85.52 139.86 81.59 137.01 77.38 134.72 Z" />
</g>
<g id="#06b0dfff">
<path fill="#06b0df" opacity="1.00" d=" M 81.67 83.98 C 83.26 84.55 84.83 85.17 86.40 85.80 C 86.54 100.37 86.23 114.94 86.40 129.51 C 90.08 131.46 93.79 133.44 97.05 136.06 C 94.02 135.75 90.96 135.65 87.95 135.19 C 85.94 134.06 83.92 132.92 81.91 131.79 C 81.24 115.87 81.75 99.92 81.67 83.98 Z" />
</g>
<g id="#06b2e3ff">
<path fill="#06b2e3" opacity="1.00" d=" M 164.56 129.17 C 164.62 114.72 164.21 100.26 164.49 85.81 C 164.70 93.44 164.40 101.09 165.07 108.70 C 166.21 108.27 167.35 107.84 168.50 107.41 C 169.40 115.47 168.94 123.58 168.58 131.65 C 165.57 133.52 162.46 135.23 159.24 136.71 C 158.04 136.06 156.85 135.42 155.63 134.84 C 158.56 132.88 161.57 131.04 164.56 129.17 Z" />
</g>
<g id="#02a8d5ff">
<path fill="#02a8d5" opacity="1.00" d=" M 90.24 97.00 C 90.26 94.45 89.93 91.74 91.24 89.43 L 91.14 90.44 C 90.94 93.53 90.13 96.71 90.92 99.77 C 93.29 102.78 97.13 104.38 99.08 107.79 C 99.04 112.13 98.50 116.52 99.30 120.82 C 99.49 122.59 101.07 123.64 102.38 124.61 C 105.54 126.78 108.98 128.50 112.36 130.27 C 113.21 134.11 113.59 138.03 114.06 141.93 C 105.91 137.96 98.36 132.89 90.39 128.57 C 90.24 118.05 90.41 107.52 90.24 97.00 Z" />
</g>
<g id="#007f9eff">
<path fill="#007f9e" opacity="1.00" d=" M 145.99 98.87 C 150.48 95.35 155.73 92.90 160.63 90.00 C 160.67 103.08 160.96 116.18 160.38 129.24 L 160.38 128.46 C 160.37 119.29 160.67 110.11 160.14 100.95 C 157.40 102.68 154.72 104.51 152.05 106.34 C 146.30 107.08 142.12 111.35 137.57 114.50 C 136.92 119.48 136.46 124.49 136.26 129.51 C 136.89 129.70 138.14 130.10 138.77 130.30 C 137.99 134.20 137.45 138.15 137.18 142.12 C 134.25 144.45 130.92 146.18 127.54 147.76 C 127.44 141.34 127.09 134.87 127.67 128.48 C 133.03 123.36 134.48 115.76 139.12 110.13 C 141.86 106.67 143.90 102.75 145.99 98.87 Z" />
<path fill="#007f9e" opacity="1.00" d=" M 90.92 99.77 C 90.13 96.71 90.94 93.53 91.14 90.44 C 95.16 92.81 99.51 94.74 103.15 97.69 C 106.41 101.87 109.32 106.30 112.48 110.55 C 116.51 115.76 118.12 122.45 122.69 127.29 C 123.45 121.20 123.32 115.06 123.45 108.94 C 123.84 121.90 123.87 134.91 123.49 147.87 C 120.36 145.93 116.47 144.82 114.06 141.93 C 113.59 138.03 113.21 134.11 112.36 130.27 C 112.96 130.09 114.16 129.71 114.76 129.53 C 114.47 124.56 114.79 119.41 113.21 114.64 C 110.08 110.81 105.39 108.71 101.34 106.02 C 100.58 106.61 99.83 107.20 99.08 107.79 C 97.13 104.38 93.29 102.78 90.92 99.77 Z" />
</g>
<g id="#008fb4ff">
<path fill="#008fb4" opacity="1.00" d=" M 103.15 97.69 C 110.20 100.90 116.53 105.46 123.45 108.94 C 123.32 115.06 123.45 121.20 122.69 127.29 C 118.12 122.45 116.51 115.76 112.48 110.55 C 109.32 106.30 106.41 101.87 103.15 97.69 Z" />
<path fill="#008fb4" opacity="1.00" d=" M 127.57 108.98 C 133.79 105.77 139.61 101.77 145.99 98.87 C 143.90 102.75 141.86 106.67 139.12 110.13 C 134.48 115.76 133.03 123.36 127.67 128.48 C 127.18 122.00 127.39 115.48 127.57 108.98 Z" />
</g>
<g id="#02a7d4ff">
<path fill="#02a7d4" opacity="1.00" d=" M 152.05 106.34 C 154.72 104.51 157.40 102.68 160.14 100.95 C 160.67 110.11 160.37 119.29 160.38 128.46 C 152.87 133.35 144.90 137.54 137.18 142.12 C 137.45 138.15 137.99 134.20 138.77 130.30 C 143.24 128.02 147.53 125.42 151.76 122.72 C 152.18 117.27 152.31 111.80 152.05 106.34 Z" />
</g>
<g id="#0194baff">
<path fill="#0194ba" opacity="1.00" d=" M 87.95 135.19 C 90.96 135.65 94.02 135.75 97.05 136.06 C 106.17 140.42 114.60 146.16 123.51 150.96 C 123.53 152.39 123.54 153.82 123.54 155.26 C 119.88 153.64 116.39 151.56 112.54 150.43 C 110.66 149.84 108.97 151.24 107.29 151.82 C 101.34 148.77 95.46 145.51 89.96 141.69 C 90.41 141.45 91.30 140.98 91.75 140.74 C 90.65 138.78 89.38 136.92 87.95 135.19 Z" />
</g>
<g id="#027792ff">
<path fill="#027792" opacity="1.00" d=" M 145.50 140.40 C 147.29 139.32 149.23 138.51 151.25 137.94 C 150.12 140.40 148.96 143.06 146.46 144.41 C 140.47 148.11 134.15 151.24 128.06 154.74 C 127.85 153.47 127.65 152.21 127.45 150.94 C 133.51 147.51 139.53 143.99 145.50 140.40 Z" />
</g>
<g id="#03a8d6ff">
<path fill="#03a8d6" opacity="1.00" d=" M 107.29 151.82 C 108.97 151.24 110.66 149.84 112.54 150.43 C 116.39 151.56 119.88 153.64 123.54 155.26 C 123.51 157.13 123.46 159.00 123.38 160.87 C 117.77 158.34 112.43 155.21 107.29 151.82 Z" />
</g>
</svg>

<?xml version="1.0" encoding="utf-8"?>
<!-- Generator: Adobe Illustrator 26.0.3, SVG Export Plug-In . SVG Version: 6.00 Build 0)  -->
<svg version="1.1" id="Layer_1" xmlns="http://www.w3.org/2000/svg" xmlns:xlink="http://www.w3.org/1999/xlink" x="0px" y="0px"
	 viewBox="0 0 250 250" style="enable-background:new 0 0 250 250;" xml:space="preserve">
<style type="text/css">
	.st0{fill:#FFFFFF;}
	.st1{fill:#0196BD;}
	.st2{fill:#04ABD9;}
	.st3{fill:#0195BB;}
	.st4{fill:#06B2E4;}
	.st5{fill:#05B2E4;}
	.st6{fill:#00748F;}
	.st7{fill:#02A3CE;}
	.st8{fill:#0297BE;}
	.st9{fill:#007793;}
	.st10{fill:#06B0DF;}
	.st11{fill:#06B2E3;}
	.st12{fill:#02A8D5;}
	.st13{fill:#007F9E;}
	.st14{fill:#008FB4;}
	.st15{fill:#02A7D4;}
	.st16{fill:#0194BA;}
	.st17{fill:#027792;}
	.st18{fill:#03A8D6;}
</style>
<circle class="st0" cx="125" cy="125.5" r="125"/>
<g id="_x23_0196bdff">
	<path class="st1" d="M84.6,74.7c13.4-7.7,26.9-15.3,40.3-23.2c14.8,7.9,29.2,16.6,43.9,24.7c0.9,0.5,2,1.1,1.8,2.4
		c-1.1,0.7-2.3,1.3-3.4,1.9c-6.5-4.2-13.6-7.9-21.5-7.6c-5.8-1.9-10.7-5.8-16.1-8.5c-1.9-0.8-3.9-2.8-6-1.6c-6,3.2-11.7,7-17.6,10.2
		c-0.8,0.5-1.8,0.8-2.7,0.9c-7.3-0.3-13.4,3.9-19.3,7.6c-1.5-1-3.1-1.8-4.5-2.9C79.7,76.2,83,76,84.6,74.7z"/>
</g>
<g id="_x23_04abd9ff">
	<path class="st2" d="M125.2,67.4c4.1,1.3,7.5,4,11.1,6.2c-6.8-0.5-13.6-0.3-20.4-0.6C118.6,70.7,121.8,68.7,125.2,67.4z"/>
</g>
<g id="_x23_0195bbff">
	<path class="st3" d="M102.9,80.2c4.3-2.3,8.3-5.5,13-7.1c6.8,0.3,13.6,0,20.4,0.6c4.4,2,8.4,4.9,12.6,7.3c-2.7,2.8-5.4,5.4-8.1,8.1
		c2.6,0.5,5.2,0.9,7.8,1.3c0,0.5-0.1,1.4-0.1,1.9c-6.5,4.3-13.4,7.9-20.1,12c-1.3,0.7-3,2-4.5,0.8c-7.2-4.2-14.4-8.4-21.5-12.8
		c0-0.9,0-1.9,0.1-2.8c2.2-0.3,4.3-0.5,6.5-0.9C108.2,85.2,104.7,83.2,102.9,80.2 M110.5,84.6c0,0.3,0,0.9,0,1.2
		c4.5,3.5,9.3,6.9,14.5,9.3c5.8-2.2,11.4-5.5,16.1-9.7c-5.4-2.1-10.3-5.6-16-7C120.1,80.1,115.4,82.5,110.5,84.6z"/>
</g>
<g id="_x23_06b2e4ff">
	<path class="st4" d="M145.8,72.9c7.9-0.3,15,3.4,21.5,7.6c-1.9,1-4.1,3.1-6.4,1.6C155.8,79.1,150.4,76.7,145.8,72.9z"/>
</g>
<g id="_x23_05b2e4ff">
	<path class="st5" d="M83.9,81.5c5.9-3.7,12-8,19.3-7.6c-4.4,4.2-10.1,6.7-15.3,9.6C86.6,82.9,85.2,82.2,83.9,81.5z"/>
</g>
<g id="_x23_00748fff">
	<path class="st6" d="M110.5,84.6c4.9-2,9.6-4.5,14.6-6.2c5.7,1.3,10.6,4.9,16,7c-4.7,4.2-10.3,7.4-16.1,9.7
		c-5.2-2.3-10.1-5.7-14.5-9.3C110.5,85.4,110.5,84.8,110.5,84.6z"/>
	<path class="st6" d="M99.1,107.8c0.8-0.6,1.5-1.2,2.3-1.8c4.1,2.7,8.7,4.8,11.9,8.6c1.6,4.8,1.3,9.9,1.6,14.9
		c-0.6,0.2-1.8,0.6-2.4,0.7c-3.4-1.8-6.8-3.5-10-5.7c-1.3-1-2.9-2-3.1-3.8C98.5,116.5,99,112.1,99.1,107.8z"/>
	<path class="st6" d="M137.6,114.5c4.5-3.2,8.7-7.4,14.5-8.2c0.3,5.5,0.1,10.9-0.3,16.4c-4.2,2.7-8.5,5.3-13,7.6
		c-0.6-0.2-1.9-0.6-2.5-0.8C136.5,124.5,136.9,119.5,137.6,114.5z"/>
</g>
<g id="_x23_02a3ceff">
	<path class="st7" d="M92.9,85.9c3.4-1.8,6.7-3.7,10-5.7c1.8,3,5.3,5,6,8.5c-2.2,0.4-4.3,0.7-6.5,0.9c0,0.9,0,1.9-0.1,2.8
		C99.2,90.3,95,89.3,92.9,85.9z"/>
	<path class="st7" d="M148.9,80.9c3.2,1.5,6.3,3.3,8.8,5.8c-3,2-6.1,3.8-9.3,5.5c0-0.5,0.1-1.4,0.1-1.9c-2.6-0.4-5.2-0.8-7.8-1.3
		C143.4,86.4,146.2,83.7,148.9,80.9z"/>
</g>
<g id="_x23_0297beff">
	<path class="st8" d="M164.5,85.8c3-1.6,6-3.1,9.1-4.7c0.1,17.8,0.1,35.7,0.1,53.6c-15.3,8.9-30.6,17.9-46.1,26.4
		c-0.1-3.4-0.2-6.8-0.1-10.2c0.2,1.3,0.4,2.5,0.6,3.8c6.1-3.5,12.4-6.6,18.4-10.3c2.5-1.4,3.7-4,4.8-6.5c0.7-1.8,2.7-2.5,4.4-3.1
		c1.2,0.6,2.4,1.2,3.6,1.9c3.2-1.5,6.3-3.2,9.3-5.1c0.4-8.1,0.8-16.2-0.1-24.2c-1.1,0.4-2.3,0.9-3.4,1.3
		C164.4,101.1,164.7,93.4,164.5,85.8z"/>
</g>
<g id="_x23_007793ff">
	<path class="st9" d="M77.4,134.7c0.1-17.8-0.3-35.6,0.2-53.3c1.4,0.6,2.8,1.2,4.1,1.8V84c0.1,15.9-0.4,31.9,0.2,47.8
		c2,1.1,4,2.3,6,3.4c1.4,1.7,2.7,3.6,3.8,5.6c-0.4,0.2-1.3,0.7-1.8,0.9C85.5,139.9,81.6,137,77.4,134.7z"/>
</g>
<g id="_x23_06b0dfff">
	<path class="st10" d="M81.7,84c1.6,0.6,3.2,1.2,4.7,1.8c0.1,14.6-0.2,29.1,0,43.7c3.7,2,7.4,3.9,10.7,6.6c-3-0.3-6.1-0.4-9.1-0.9
		c-2-1.1-4-2.3-6-3.4C81.2,115.9,81.8,99.9,81.7,84z"/>
</g>
<g id="_x23_06b2e3ff">
	<path class="st11" d="M164.6,129.2c0.1-14.4-0.3-28.9-0.1-43.4c0.2,7.6-0.1,15.3,0.6,22.9c1.1-0.4,2.3-0.9,3.4-1.3
		c0.9,8.1,0.4,16.2,0.1,24.2c-3,1.9-6.1,3.6-9.3,5.1c-1.2-0.7-2.4-1.3-3.6-1.9C158.6,132.9,161.6,131,164.6,129.2z"/>
</g>
<g id="_x23_02a8d5ff">
	<path class="st12" d="M90.2,97c0-2.6-0.3-5.3,1-7.6l-0.1,1c-0.2,3.1-1,6.3-0.2,9.3c2.4,3,6.2,4.6,8.2,8c0,4.3-0.6,8.7,0.2,13
		c0.2,1.8,1.8,2.8,3.1,3.8c3.2,2.2,6.6,3.9,10,5.7c0.8,3.8,1.2,7.8,1.7,11.7c-8.1-4-15.7-9-23.7-13.4C90.2,118.1,90.4,107.5,90.2,97
		z"/>
</g>
<g id="_x23_007f9eff">
	<path class="st13" d="M146,98.9c4.5-3.5,9.7-6,14.6-8.9c0,13.1,0.3,26.2-0.2,39.2v-0.8c0-9.2,0.3-18.4-0.2-27.5
		c-2.7,1.7-5.4,3.6-8.1,5.4c-5.8,0.7-9.9,5-14.5,8.2c-0.7,5-1.1,10-1.3,15c0.6,0.2,1.9,0.6,2.5,0.8c-0.8,3.9-1.3,7.8-1.6,11.8
		c-2.9,2.3-6.3,4.1-9.6,5.6c-0.1-6.4-0.5-12.9,0.1-19.3c5.4-5.1,6.8-12.7,11.4-18.3C141.9,106.7,143.9,102.8,146,98.9z"/>
	<path class="st13" d="M90.9,99.8c-0.8-3.1,0-6.2,0.2-9.3c4,2.4,8.4,4.3,12,7.2c3.3,4.2,6.2,8.6,9.3,12.9c4,5.2,5.6,11.9,10.2,16.7
		c0.8-6.1,0.6-12.2,0.8-18.3c0.4,13,0.4,26,0,38.9c-3.1-1.9-7-3-9.4-5.9c-0.5-3.9-0.8-7.8-1.7-11.7c0.6-0.2,1.8-0.6,2.4-0.7
		c-0.3-5,0-10.1-1.6-14.9c-3.1-3.8-7.8-5.9-11.9-8.6c-0.8,0.6-1.5,1.2-2.3,1.8C97.1,104.4,93.3,102.8,90.9,99.8z"/>
</g>
<g id="_x23_008fb4ff">
	<path class="st14" d="M103.2,97.7c7,3.2,13.4,7.8,20.3,11.2c-0.1,6.1,0,12.3-0.8,18.3c-4.6-4.8-6.2-11.5-10.2-16.7
		C109.3,106.3,106.4,101.9,103.2,97.7z"/>
	<path class="st14" d="M127.6,109c6.2-3.2,12-7.2,18.4-10.1c-2.1,3.9-4.1,7.8-6.9,11.3c-4.6,5.6-6.1,13.2-11.4,18.3
		C127.2,122,127.4,115.5,127.6,109z"/>
</g>
<g id="_x23_02a7d4ff">
	<path class="st15" d="M152.1,106.3c2.7-1.8,5.3-3.7,8.1-5.4c0.5,9.2,0.2,18.3,0.2,27.5c-7.5,4.9-15.5,9.1-23.2,13.7
		c0.3-4,0.8-7.9,1.6-11.8c4.5-2.3,8.8-4.9,13-7.6C152.2,117.3,152.3,111.8,152.1,106.3z"/>
</g>
<g id="_x23_0194baff">
	<path class="st16" d="M87.9,135.2c3,0.5,6.1,0.6,9.1,0.9c9.1,4.4,17.5,10.1,26.5,14.9c0,1.4,0,2.9,0,4.3c-3.7-1.6-7.2-3.7-11-4.8
		c-1.9-0.6-3.6,0.8-5.2,1.4c-6-3.1-11.8-6.3-17.3-10.1c0.5-0.2,1.3-0.7,1.8-0.9C90.7,138.8,89.4,136.9,87.9,135.2z"/>
</g>
<g id="_x23_027792ff">
	<path class="st17" d="M145.5,140.4c1.8-1.1,3.7-1.9,5.8-2.5c-1.1,2.5-2.3,5.1-4.8,6.5c-6,3.7-12.3,6.8-18.4,10.3
		c-0.2-1.3-0.4-2.5-0.6-3.8C133.5,147.5,139.5,144,145.5,140.4z"/>
</g>
<g id="_x23_03a8d6ff">
	<path class="st18" d="M107.3,151.8c1.7-0.6,3.4-2,5.2-1.4c3.8,1.1,7.3,3.2,11,4.8c0,1.9-0.1,3.7-0.2,5.6
		C117.8,158.3,112.4,155.2,107.3,151.8z"/>
</g>
</svg>
